!!!COM: Beethoven
!!!OTL: 24 Variationen uber Venni Amore von V. Righini
!!!Variation: Variation 14 a
**function	**harm	**kern	**kern
*	*	*clefF4	*clefF4
*	*	*k[f#c#]	*k[f#c#]
*M2/4	*M2/4	*M2/4	*M2/4
*D:	*D:	*D:	*D:
=241	=241	=241	=241
4T	4I	8DD'L	8A 8f#
.	.	8AA'J	8r
4T	4viio	8BB'L	8G 8e
.	.	8C#'J	8r
=242	=242	=242	=242
*	*	*	*^
2T	2I	8D'L	4F#	4..d
.	.	8DD'J	.	.
.	.	8EE'L	4A	.
.	.	8FF#'J	.	.
.	.	.	.	16c#
*	*	*	*v	*v
=243	=243	=243	=243
2T	2IV	8GGL	8G 8B
.	.	8GGGJ	8r
.	.	8BBBL	8D 8G 8B
.	.	8CC#J	8r
=244	=244	=244	=244
2T	2I	8DD	8D 8F# 8A
.	.	8r	8r
.	.	4r	4r
*	*	*	*clefG2
=245	=245	=245	=245
*M3/8	*M3/8	*M3/8	*M3/8
4T	4I	8d	8a 8ff#
.	.	8r	8r
8T	8V7/vi	(8A# 8c#	(8g 8ee
=246	=246	=246	=246
4T	4vi	8B) 8d	8f#) 8dd
.	.	8r	8r
8T	8viioD7b/ii	(8F# 8A 8d#	(8cc 8ccc
=247	=247	=247	=247
4P	4iib	8G) 8B 8e	8b) 8bb
.	.	8r	8r
*	*	*clefG2	*
8D	8viiom7b	(8e 8g	(8cc# 8bb
=248	=248	=248	=248
4.T	4.Ib	8f#) 8a	8dd) 8aa
.	.	8r	8r
.	.	8r	8r
*-	*-	*-	*-
